X:6680
T:Hakki's Polka
C:Tom Anderson 1978
Z:Added by Alf warnock@magma.ca
R:Polka
L:1/8
M:4/4
K:D
DE|"D"F2A/2F3/2 "G"G2B/2G3/2|"D"A2f/2d3/2 A3F|"Em"G2B/2G3/2 "A7"A,2CE|"D"D2DE F2DE|
"D"F2A/2F3/2 "G"G2B/2G3/2|"D"A2f/2d3/2 A3F|"Em"G2B/2G3/2 "A7"A,2C/2E3/2|1 "D"D4 D2DE:|2 "D"D4 D2fg||
"D"a2af "Bm"d2df|"Em"e2ec "A7"A2Ac|"D"d2de "Bm"f2ed|"A7"edcB A2fg|
"D"a2af "Bm"d2df|"Em"e2ec "A7"A2A/2F3/2|"G"G2B/2G3/2 "A7"A,2C/2E3/2|"D"D6fg|
"D"a2af "Bm"d2df|"Em"e2ec "A7"A2Ac|"D"d2de "Bm"f2ed|"A7"edcB AGFE|
"D"F2A/2F3/2 "G"G2B/2G3/2|"D"A2f/2d3/2 A3F|"G"G2B/2G3/2 "A7"A,2C/2E3/2|"D"D6|]


